X: 301
M: C|
L: 1/8
K: D
f>ad>f e>gc>e | d2d>d d2 :|\
|: A>c |\
e2c>e g2e>g | f>ad>f e2A>c |
e2c>e g2e>g | f>ad>f e2A>F |\
f>ad>f e>gc>e | d2d>d d2 |]

